X: 2
T: The Sailor's Wife
M: 6/8
L: 1/8
R: jig
K: Dm
|:\
"Dm"DEF E2D | Ade f2g | "Dm"agf "C"edc | "Bb"AcA "Am"GEC |\
"Dm"DEF E2D | Ade f2g | "Gm"afd "A"ge^c |1 "Dm"d3 d3 :|2 "Dm"d3 d2e ||
|:\
"Dm"fga fga | fga agf | "C"ecg ecg | efg gfe |\
"Dm"f2a agf | "C"e2g gec | "Gm"afd "A"ge^c |1 "Dm"d3 d2 e :|[2 "Dm"d6 |]


